src/assets/svg/icons/fa/nuevos/classic/duotone/user-tie-hair-long classic duotone.svg

<svg xmlns="http://www.w3.org/2000/svg" viewBox="0 0 448 512"><!--! Font Awesome Pro 6.4.0 by @fontawesome - https://fontawesome.com License - https://fontawesome.com/license (Commercial License) Copyright 2023 Fonticons, Inc. --><defs><style>.fa-secondary{opacity:.4}</style></defs><path class="fa-primary" d="M176 112H128h0v48c0 53 43 96 96 96s96-43 96-96V128h0V96h-8c-22.8 0-42.8-11.9-54.1-29.8C241 93.7 210.6 112 176 112zm48 160H70.6C58.1 272 48 261.9 48 249.4c0-6 2.4-11.8 6.6-16l3.9-3.9c24-24 37.5-56.6 37.5-90.5V128h0C96 57.3 153.3 0 224 0c70.6 0 127.8 57.1 128 127.6v.8l0 .2V139c0 33.9 13.5 66.5 37.5 90.5l3.9 3.9c4.2 4.2 6.6 10 6.6 16c0 12.5-10.1 22.6-22.6 22.6H224zm-14.9 87.2l-18.6-31c-6.4-10.7 1.3-24.2 13.7-24.2H224h19.7c12.4 0 20.1 13.6 13.7 24.2l-18.6 31 33.4 123.9 39.5-161.2c77.2 12 136.3 78.8 136.3 159.4c0 17-13.8 30.7-30.7 30.7H265.1 182.9 30.7C13.8 512 0 498.2 0 481.3c0-80.6 59.1-147.4 136.3-159.4l39.5 161.2 33.4-123.9z"/><path class="fa-secondary" d="M257.9 66.2C241 93.7 210.6 112 176 112H128l0 48c0 53 43 96 96 96s96-43 96-96l0-64h-8c-22.8 0-42.8-11.9-54.1-29.8z"/></svg>

<svg xmlns="http://www.w3.org/2000/svg" viewBox="0 0 448 512"><defs><style>.fa-secondary{opacity:.4}</style></defs><path class="fa-primary" d="M70.63 272C58.13 272 48 261.9 48 249.4C48 243.4 50.38 237.6 54.63 233.4L58.51 229.5C82.51 205.5 96 172.9 96 138.1V128C96 57.31 153.3 0 224 0C294.6 0 351.8 57.1 352 127.6V128.4L352 128.6V138.1C352 172.9 365.5 205.5 389.5 229.5L393.4 233.4C397.6 237.6 400 243.4 400 249.4C400 261.9 389.9 272 377.4 272H70.63zM128 112V160C128 213 170.1 256 224 256C277 256 320 213 320 160L320 96H312C289.2 96 269.2 84.09 257.9 66.16C240.1 93.66 210.6 112 176 112H128zM209.1 359.2L176 304H272L238.9 359.2L272.2 483.1L311.7 321.9C388.9 333.9 448 400.7 448 481.3C448 498.2 434.2 512 417.3 512H30.72C13.75 512 0 498.2 0 481.3C0 400.7 59.09 333.9 136.3 321.9L175.8 483.1L209.1 359.2z"/><path class="fa-secondary" d="M312 96H320L320 160C320 213 277 256 224 256C170.1 256 128 213 128 160L128 112H176C210.6 112 240.1 93.66 257.9 66.16C269.2 84.1 289.2 96 312 96V96z"/></svg>
